icons/line/paper-clip.svg

<svg width="24" height="24" viewBox="0 0 24 24" fill="none" xmlns="http://www.w3.org/2000/svg">
<path d="M10 7L10 15C10 16.1046 10.8954 17 12 17V17C13.1046 17 14 16.1046 14 15L14 7C14 4.79086 12.2091 3 10 3V3C7.79086 3 6 4.79086 6 7L6 15C6 18.3137 8.68629 21 12 21V21C15.3137 21 18 18.3137 18 15L18 7" stroke="currentColor" stroke-width="2" stroke-linecap="round" stroke-linejoin="round"/>
</svg>

<svg width="24" height="24" fill="none" xmlns="http://www.w3.org/2000/svg"><path d="M10 7v8a2 2 0 002 2v0a2 2 0 002-2V7a4 4 0 00-4-4v0a4 4 0 00-4 4v8a6 6 0 006 6v0a6 6 0 006-6V7" stroke="currentColor" stroke-width="2" stroke-linecap="round" stroke-linejoin="round"/></svg>
